packages/katcn/src/icons/svg/mailBox-solid.svg

<svg width="24" height="24" viewBox="0 0 24 24" fill="none" xmlns="http://www.w3.org/2000/svg">
<path d="M20.9055 14H19.9104H17.6219C17.1244 14 16.6269 14.2927 16.4279 14.6829C15.5323 16.2439 13.8408 17.2195 12.0498 17.2195C10.2587 17.2195 8.56716 16.2439 7.67164 14.6829C7.47264 14.2927 6.97512 14 6.47761 14H3.99005H2.99502H2.199C2.0995 14 2.0995 14 2 14V17.8049C2 20.1463 3.89055 22 6.27861 22H17.7214C20.1095 22 22 20.1463 22 17.8049V14C21.9005 14 21.9005 14 21.801 14H20.9055Z" fill="black"/>
<path d="M17.7 2H6.3C3.9 2 2 3.87121 2 6.23485V11.75C2.1 11.75 2.1 11.75 2.2 11.75H3H4H6.3C7.6 11.75 8.7 12.3409 9.3 13.4242C9.8 14.4091 10.9 15 12 15C13.1 15 14.2 14.4091 14.7 13.4242C15.3 12.4394 16.4 11.75 17.7 11.75H20H21H21.8C21.9 11.75 21.9 11.75 22 11.75V6.23485C22 3.87121 20.1 2 17.7 2Z" fill="black"/>
</svg>

<svg xmlns="http://www.w3.org/2000/svg" fill="none" viewBox="0 0 24 24"><path fill="#000" d="M20.906 14h-3.284c-.498 0-.995.293-1.194.683a5.08 5.08 0 0 1-4.378 2.537 5.08 5.08 0 0 1-4.378-2.537c-.2-.39-.697-.683-1.194-.683H2v3.805C2 20.146 3.89 22 6.279 22H17.72c2.39 0 4.28-1.854 4.28-4.195V14z"/><path fill="#000" d="M17.7 2H6.3C3.9 2 2 3.871 2 6.235v5.515h4.3c1.3 0 2.4.59 3 1.674C9.8 14.41 10.9 15 12 15s2.2-.59 2.7-1.576c.6-.985 1.7-1.674 3-1.674H22V6.235C22 3.87 20.1 2 17.7 2"/></svg>
